X:1
T:Abbey
Z: id:dc-reel-1
M:C
L:1/8
K:A Dorian
B|A3B A2GE|A2GA BddB|A3B AGEF|G3A Bdd:|!
g|egg2 a2ba|gabg aged|egg2 a2ga|bgaf gedg|!
egg2 a2bg|agbg aged|egg2 a2ga|bgaf ged|]!


